icons/dollar-sign-17.svg

<svg width="16" height="17" viewBox="0 0 16 17" fill="none" xmlns="http://www.w3.org/2000/svg">
<path fill-rule="evenodd" clip-rule="evenodd" d="M8.5 2.99982C8.5 2.72367 8.27614 2.49982 8 2.49982C7.72386 2.49982 7.5 2.72367 7.5 2.99982V4.49982H6.75C6.15326 4.49982 5.58097 4.73687 5.15901 5.15883C4.73705 5.58078 4.5 6.15308 4.5 6.74982C4.5 7.34655 4.73705 7.91885 5.15901 8.34081C5.58097 8.76276 6.15326 8.99982 6.75 8.99982H7.5V11.4998H5C4.72386 11.4998 4.5 11.7237 4.5 11.9998C4.5 12.276 4.72386 12.4998 5 12.4998H7.5V13.9998C7.5 14.276 7.72386 14.4998 8 14.4998C8.27614 14.4998 8.5 14.276 8.5 13.9998V12.4998H9.25C9.84674 12.4998 10.419 12.2628 10.841 11.8408C11.2629 11.4188 11.5 10.8466 11.5 10.2498C11.5 9.65308 11.2629 9.08078 10.841 8.65883C10.419 8.23687 9.84674 7.99982 9.25 7.99982H8.5V5.49982H10.5C10.7761 5.49982 11 5.27596 11 4.99982C11 4.72367 10.7761 4.49982 10.5 4.49982H8.5V2.99982ZM7.5 5.49982H6.75C6.41848 5.49982 6.10054 5.63151 5.86612 5.86593C5.6317 6.10035 5.5 6.4183 5.5 6.74982C5.5 7.08134 5.6317 7.39928 5.86612 7.6337C6.10054 7.86812 6.41848 7.99982 6.75 7.99982H7.5V5.49982ZM8.5 8.99982V11.4998H9.25C9.58152 11.4998 9.89946 11.3681 10.1339 11.1337C10.3683 10.8993 10.5 10.5813 10.5 10.2498C10.5 9.9183 10.3683 9.60035 10.1339 9.36593C9.89946 9.13151 9.58152 8.99982 9.25 8.99982H8.5Z" fill="#272431"/>
</svg>

<svg xmlns="http://www.w3.org/2000/svg" width="16" height="17" viewBox="0 0 16 17"><path fill-rule="evenodd" d="M8.5 3a.5.5 0 10-1 0v1.5h-.75a2.25 2.25 0 100 4.5h.75v2.5H5a.5.5 0 000 1h2.5V14a.5.5 0 101 0v-1.5h.75a2.25 2.25 0 100-4.5H8.5V5.5h2a.5.5 0 000-1h-2V3zm-1 2.5h-.75a1.25 1.25 0 100 2.5h.75V5.5zm1 3.5v2.5h.75a1.25 1.25 0 000-2.5H8.5z"/></svg>
